web/packages/design/src/ResourceIcon/assets/fossa.svg

<svg width="72" height="72" viewBox="0 0 72 72" fill="none" xmlns="http://www.w3.org/2000/svg">
<g clip-path="url(#clip0_15940_7383)">
<path d="M0.519712 27.7638C-0.811607 24.8108 0.503033 21.3378 3.45603 20.0065L42.221 2.52997C45.174 1.19865 48.647 2.51329 49.9783 5.4663L67.4549 44.2313C68.7862 47.1842 67.4716 50.6573 64.5184 51.9886L25.7537 69.465C22.8006 70.7965 19.3275 69.4817 17.9962 66.5287L0.519712 27.7638Z" fill="#06132D"/>
<path d="M0.519715 27.7656C0.0784675 26.787 -0.0721204 25.7511 0.0312577 24.755L8.04308 23.1108C7.68251 21.9304 7.43506 20.705 7.43506 19.6457C7.43506 19.1488 7.46303 18.6587 7.51742 18.1773C8.20971 12.0487 13.1811 7.29541 19.2114 7.29541C21.8464 7.29541 24.279 8.20286 26.2406 9.73623C26.6847 10.0833 27.1045 10.4625 27.4972 10.8705C29.049 12.4313 31.8508 12.4313 40 12.4313C45.6835 12.4313 50.8842 14.3918 55.1655 17.63C55.3386 17.7611 55.5 17.9052 55.6541 18.0575C55.9043 18.3048 56.1352 18.5736 56.3657 18.8422C56.4558 18.947 56.5459 19.0519 56.637 19.1553C58.958 21.7909 64.7613 24.3224 70.585 24.8908V32.2223C69.6975 36.2581 68.0225 38.817 65.9911 40.9862C64.9678 42.0788 63.7663 43.0725 62.3529 44.1063C61.4817 44.6591 60.4289 44.8354 59.4086 44.6824C55.6007 44.1114 52.5928 43.9525 50.6375 43.9525C33.7172 43.9525 21.3585 53.3225 20.4394 69.2165C19.3972 68.6238 18.5266 67.7073 17.9962 66.5305L0.519715 27.7656Z" fill="#53B18A"/>
<mask id="mask0_15940_7383" style="mask-type:alpha" maskUnits="userSpaceOnUse" x="0" y="2" width="68" height="68">
<path d="M0.519703 27.7653C-0.8116 24.8123 0.503039 21.3393 3.45604 20.0078L42.2209 2.53142C45.1739 1.20012 48.6471 2.51476 49.9784 5.46776L67.4548 44.2326C68.7861 47.1856 67.4715 50.6588 64.5185 51.9901L25.7536 69.4665C22.8006 70.7978 19.3274 69.4832 17.9961 66.5302L0.519703 27.7653Z" fill="#031E3D"/>
</mask>
<g mask="url(#mask0_15940_7383)">
<path d="M10.7393 50.4303L20.3853 71.8206C20.3847 71.4951 20.3844 71.2225 20.3844 71.1409C20.3844 54.3182 32.697 44.2351 49.9091 43.959C35.125 44.0916 21.5459 46.4896 10.7393 50.4303Z" fill="#66C0EE"/>
<path d="M49.1549 43.9775C34.5161 44.3243 21.4776 48.3675 12.6104 54.5794L20.3855 71.8207C20.3848 71.4952 20.3845 71.2226 20.3845 71.141C20.3845 54.5652 32.3385 44.5326 49.1549 43.9775Z" fill="#1F60E0"/>
<path d="M43.8538 44.4897C31.3144 46.3472 20.9159 52.8672 15.7891 61.6277L20.3853 71.82C20.3847 71.4945 20.3844 71.2218 20.3844 71.1403C20.3844 56.3657 29.8814 46.7895 43.8538 44.4897Z" fill="#4321B1"/>
</g>
<path d="M7.60361 23.2061C13.0952 22.3634 20.3979 21.7753 28.599 21.5749C26.091 19.9468 25.2855 17.1645 24.5033 14.4631C23.589 11.3048 22.7067 8.25737 19.1732 7.29497C12.2717 7.15753 7.35156 12.7248 7.35156 20.4953C7.35156 21.3906 7.44047 22.3083 7.60361 23.2061Z" fill="#4321B1"/>
<path d="M70.6145 32.2217C70.6145 32.2217 72.4907 31.8595 71.8771 26.2758C71.7854 25.4422 71.2637 24.7858 70.6145 24.6877C70.3342 24.6453 70.0597 24.6152 69.8171 24.6152C68.4795 24.6152 67.9167 24.7375 67.1583 25.4797L65.1084 27.4769C64.9168 27.6635 64.9248 27.9741 65.1259 28.1505C67.663 30.3774 69.8908 32.2217 70.6145 32.2217Z" fill="#4321B1"/>
<path fill-rule="evenodd" clip-rule="evenodd" d="M51.4715 25.0216C52.6082 24.9663 53.499 24.1491 53.5386 23.1637L53.5374 23.165C53.5832 22.0242 52.4886 21.1426 51.1971 21.2053C50.124 21.2576 50.0012 21.2774 46.6064 22.0888C46.4004 22.1381 46.3437 22.3743 46.5114 22.4891C50.2761 25.0799 50.3346 25.0771 51.4715 25.0216Z" fill="white"/>
</g>
<defs>
<clipPath id="clip0_15940_7383">
<rect width="72" height="72" fill="white" transform="translate(0 0.000488281)"/>
</clipPath>
</defs>
</svg>

<svg xmlns="http://www.w3.org/2000/svg" width="72" height="72" fill="none" viewBox="0 0 72 72"><g clip-path="url(#clip0_15940_7383)"><path fill="#06132d" d="M.52 27.764a5.865 5.865 0 0 1 2.936-7.757L42.221 2.53a5.865 5.865 0 0 1 7.757 2.936l17.477 38.765a5.865 5.865 0 0 1-2.937 7.758L25.754 69.465a5.865 5.865 0 0 1-7.758-2.936z"/><path fill="#53b18a" d="M.52 27.766a5.84 5.84 0 0 1-.489-3.011l8.012-1.644c-.36-1.18-.608-2.406-.608-3.465q0-.746.082-1.469C8.21 12.05 13.181 7.295 19.211 7.295c2.635 0 5.068.908 7.03 2.441q.667.521 1.256 1.134c1.552 1.561 4.354 1.561 12.503 1.561 5.684 0 10.884 1.96 15.166 5.199q.258.198.488.428c.25.247.481.516.712.784q.135.158.271.313c2.321 2.636 8.124 5.167 13.948 5.736v7.331c-.887 4.036-2.562 6.595-4.594 8.764-1.023 1.093-2.225 2.087-3.638 3.12-.871.553-1.924.73-2.944.576-3.808-.57-6.816-.73-8.771-.73-16.92 0-29.28 9.37-30.199 25.265a5.84 5.84 0 0 1-2.443-2.686z"/><mask id="mask0_15940_7383" width="68" height="68" x="0" y="2" maskUnits="userSpaceOnUse" style="mask-type:alpha"><path fill="#031e3d" d="M.52 27.765a5.865 5.865 0 0 1 2.936-7.757L42.221 2.53a5.865 5.865 0 0 1 7.757 2.937l17.477 38.765a5.865 5.865 0 0 1-2.936 7.757L25.754 69.466a5.865 5.865 0 0 1-7.758-2.936z"/></mask><g mask="url(#mask0_15940_7383)"><path fill="#66c0ee" d="m10.74 50.43 9.645 21.39v-.68c0-16.822 12.312-26.905 29.524-27.181-14.784.133-28.363 2.53-39.17 6.471"/><path fill="#1f60e0" d="M49.155 43.978c-14.639.346-27.677 4.39-36.545 10.601l7.776 17.242-.002-.68c0-16.576 11.955-26.608 28.77-27.164"/><path fill="#4321b1" d="M43.854 44.49c-12.54 1.857-22.938 8.377-28.065 17.138l4.596 10.192v-.68c0-14.774 9.496-24.35 23.469-26.65"/></g><path fill="#4321b1" d="M7.604 23.206c5.491-.843 12.794-1.43 20.995-1.631-2.508-1.628-3.314-4.41-4.096-7.112-.914-3.158-1.796-6.206-5.33-7.168-6.901-.137-11.821 5.43-11.821 13.2 0 .896.088 1.813.252 2.711m63.011 9.016s1.876-.363 1.262-5.946c-.092-.834-.613-1.49-1.262-1.588a5.5 5.5 0 0 0-.798-.073c-1.337 0-1.9.123-2.659.865l-2.05 1.997a.46.46 0 0 0 .018.674c2.537 2.226 4.765 4.07 5.489 4.07"/><path fill="#fff" fill-rule="evenodd" d="M51.472 25.022c1.136-.056 2.027-.873 2.067-1.858l-.002.001c.046-1.14-1.048-2.022-2.34-1.96-1.073.053-1.196.072-4.59.884-.207.05-.263.285-.096.4 3.765 2.59 3.824 2.588 4.96 2.533" clip-rule="evenodd"/></g><defs><clipPath id="clip0_15940_7383"><path fill="#fff" d="M0 0h72v72H0z"/></clipPath></defs></svg>
